X: 41312
T: Tune The Flute
R: reel
M: 4/4
K: Gmajor
~G3A Bd~d2|gabg ageg|dg~g2 egdB|cedB cAAd|
~G3A Bd~d2|gabg age^c|dg~g2 egdB|1 dega bgg2:|2 dega bggf||
|:~g3e dB~B2|dBAd Be~e2|dg~g2 egdB|dega baaf|
~g3e dB~B2|dBAd Bee^c|dg~g2 egdB|1 cBAd BGGf:|2 cBAd BGGD||

